X:3
T: Kingdom Coming
M:C
L: 1/4
Q: 1/2=50
K: F
 c/2 | F/2A/2A/2c/2 | c/2a/2 a/4g/4f/4d/4 | c/2f/2f/2A/2 | G3/2 c/2 | F/2A/2A/2c/2 | c/2a/2 a/4g/4f/4d/4 | c/2f/2g/2g/2 | f3/2 |]
